SVG_Azure_Grouped/Application/Azure API for FHIR.svg

<?xml version="1.0" encoding="UTF-8" standalone="no"?>
<!-- Generated by Microsoft Visio, SVG Export Azure API for FHIR.svg Page-1 -->

<svg
   xmlns:dc="http://purl.org/dc/elements/1.1/"
   xmlns:cc="http://creativecommons.org/ns#"
   xmlns:rdf="http://www.w3.org/1999/02/22-rdf-syntax-ns#"
   xmlns:svg="http://www.w3.org/2000/svg"
   xmlns="http://www.w3.org/2000/svg"
   xmlns:sodipodi="http://sodipodi.sourceforge.net/DTD/sodipodi-0.dtd"
   xmlns:inkscape="http://www.inkscape.org/namespaces/inkscape"
   width="0.78734308in"
   height="0.78735709in"
   viewBox="0 0 56.68877 56.689998"
   xml:space="preserve"
   class="st4"
   version="1.1"
   id="svg39"
   sodipodi:docname="Azure API for FHIR.svg"
   style="font-size:12px;overflow:visible;color-interpolation-filters:sRGB;fill:none;fill-rule:evenodd;stroke-linecap:square;stroke-miterlimit:3"
   inkscape:version="0.92.5 (2060ec1f9f, 2020-04-08)"><metadata
   id="metadata45"><rdf:RDF><cc:Work
       rdf:about=""><dc:format>image/svg+xml</dc:format><dc:type
         rdf:resource="http://purl.org/dc/dcmitype/StillImage" /></cc:Work></rdf:RDF></metadata><defs
   id="defs43" /><sodipodi:namedview
   pagecolor="#ffffff"
   bordercolor="#666666"
   borderopacity="1"
   objecttolerance="10"
   gridtolerance="10"
   guidetolerance="10"
   inkscape:pageopacity="0"
   inkscape:pageshadow="2"
   inkscape:window-width="640"
   inkscape:window-height="480"
   id="namedview41"
   showgrid="false"
   inkscape:zoom="1.7193066"
   inkscape:cx="37.795072"
   inkscape:cy="23.279613"
   inkscape:window-x="0"
   inkscape:window-y="0"
   inkscape:window-maximized="0"
   inkscape:current-layer="svg39" />
	<style
   type="text/css"
   id="style2">
	<![CDATA[
		.st1 {fill:#ff8c00;stroke:none;stroke-linecap:butt;stroke-width:12.24}
		.st2 {fill:#ba141a;fill-opacity:0.25;stroke:none;stroke-linecap:butt;stroke-width:12.24}
		.st3 {fill:#ffffff;stroke:none;stroke-linecap:butt;stroke-width:12.24}
		.st4 {fill:none;fill-rule:evenodd;font-size:12px;overflow:visible;stroke-linecap:square;stroke-miterlimit:3}
	]]>
	</style>

	<g
   id="g37"
   transform="translate(-12.24016,-12.2443)">
		<title
   id="title4">Page-1</title>
		<g
   id="group14327-1"
   transform="translate(12.24,-34.0157)">
			<title
   id="title6">Azure API for FHIR.14327</title>
			<g
   id="group14328-2">
				<title
   id="title8">Sheet.14328</title>
				<g
   id="shape14329-3">
					<title
   id="title10">Sheet.14329</title>
					<path
   d="m 41.84,46.26 c -6.08,0 -11.31,3.69 -13.55,8.97 C 26.04,49.95 20.82,46.26 14.73,46.26 4.71,46.26 0,55.82 0,63.97 c 0,24.81 28.29,38.98 28.29,38.98 0,0 28.29,-14.17 28.29,-38.98 0,-8.15 -4.72,-17.71 -14.74,-17.71 z"
   class="st1"
   id="path12"
   inkscape:connector-curvature="0"
   style="fill:#ff8c00;stroke:none;stroke-width:12.23999977;stroke-linecap:butt" />
				</g>
				<g
   id="shape14330-5"
   transform="translate(0.128473)">
					<title
   id="title15">Sheet.14330</title>
					<path
   d="M 28.16,78.15 C 15.53,78.15 4.69,73.44 0,66.71 c 1.96,23.1 28.16,36.24 28.16,36.24 0,0 26.2,-13.14 28.16,-36.24 -4.69,6.73 -15.53,11.44 -28.16,11.44 z"
   class="st2"
   id="path17"
   inkscape:connector-curvature="0"
   style="fill:#ba141a;fill-opacity:0.25;stroke:none;stroke-width:12.23999977;stroke-linecap:butt" />
				</g>
				<g
   id="shape14331-7"
   transform="translate(27.2267,-9.56693)">
					<title
   id="title20">Sheet.14331</title>
					<ellipse
   cx="4.5967202"
   cy="98.3424"
   rx="4.5967202"
   ry="4.6062999"
   class="st3"
   id="ellipse22"
   style="fill:#ffffff;stroke:none;stroke-width:12.23999977;stroke-linecap:butt" />
				</g>
				<g
   id="shape14332-9"
   transform="translate(2.63899,-12.4996)">
					<title
   id="title25">Sheet.14332</title>
					<path
   d="m 1.66,63.6 c 0,0 -1.66,5.95 5.22,11.91 l 2.18,-2.8 C 9.02,72.69 5.31,69.69 5.04,65.32 4.81,61.75 6.59,59.83 6.59,59.83 4.62,60.73 2.98,61.96 1.66,63.6 Z m 50.86,5.1 c 1.05,4.6 0.66,9.13 -1.19,13.31 -3.32,7.5 -11.18,13.58 -22.72,17.59 l 1.15,3.35 c 9.95,-3.45 17.51,-8.44 22.03,-14.57 1.4,-3.64 2.26,-7.61 2.26,-11.91 0,-2.56 -0.58,-5.27 -1.53,-7.77 z"
   class="st3"
   id="path27"
   inkscape:connector-curvature="0"
   style="fill:#ffffff;stroke:none;stroke-width:12.23999977;stroke-linecap:butt" />
				</g>
				<g
   id="shape14333-11"
   transform="translate(3.01144,-15.5679)">
					<title
   id="title30">Sheet.14333</title>
					<path
   d="M 6.63,76.2 C 0,82.84 8.21,94.5 14.88,101.18 l 1.25,1.25 a 1.76797,1.77165 -180 0 0 2.5,0 l 2.5,-2.51 a 1.76797,1.77165 -180 1 0 -2.5,-2.5 l -1.34,1.34 C 8.13,89.57 5.18,82.33 8.96,78.54 c 3.78,-3.79 11,-0.83 20.17,8.36 l -1.34,1.33 a 1.76946,1.7731431 -180 1 0 2.5,2.51 l 2.5,-2.51 a 1.76797,1.77165 -180 0 0 0,-2.5 L 31.54,84.47 C 24.88,77.79 13.25,69.57 6.63,76.2 Z"
   class="st3"
   id="path32"
   inkscape:connector-curvature="0"
   style="fill:#ffffff;stroke:none;stroke-width:12.23999977;stroke-linecap:butt" />
				</g>
			</g>
		</g>
	</g>
</svg>

<?xml version="1.0" encoding="UTF-8" standalone="no"?>
<!DOCTYPE svg PUBLIC "-//W3C//DTD SVG 1.1//EN" "http://www.w3.org/Graphics/SVG/1.1/DTD/svg11.dtd">
<!-- Generated by Microsoft Visio, SVG Export Azure API for FHIR.svg Page-1 -->
<svg xmlns="http://www.w3.org/2000/svg" xmlns:xlink="http://www.w3.org/1999/xlink" xmlns:ev="http://www.w3.org/2001/xml-events"
		width="1.1274in" height="1.42984in" viewBox="0 0 81.1729 102.949" xml:space="preserve" color-interpolation-filters="sRGB"
		class="st4">
	<style type="text/css">
	<![CDATA[
		.st1 {fill:#ff8c00;stroke:none;stroke-linecap:butt;stroke-width:12.24}
		.st2 {fill:#ba141a;fill-opacity:0.25;stroke:none;stroke-linecap:butt;stroke-width:12.24}
		.st3 {fill:#ffffff;stroke:none;stroke-linecap:butt;stroke-width:12.24}
		.st4 {fill:none;fill-rule:evenodd;font-size:12px;overflow:visible;stroke-linecap:square;stroke-miterlimit:3}
	]]>
	</style>

	<g>
		<title>Page-1</title>
		<g id="group13980-1" transform="translate(12.24,-34.0157)">
			<title>Azure API for FHIR.13980</title>
			<g id="group13981-2">
				<title>Sheet.13981</title>
				<g id="shape13982-3">
					<title>Sheet.13982</title>
					<path d="M41.84 46.26 C35.76 46.26 30.53 49.95 28.29 55.23 C26.04 49.95 20.82 46.26 14.73 46.26 C4.71 46.26 0
								 55.82 0 63.97 C0 88.78 28.29 102.95 28.29 102.95 C28.29 102.95 56.58 88.78 56.58 63.97 C56.58 55.82
								 51.86 46.26 41.84 46.26 Z" class="st1"/>
				</g>
				<g id="shape13983-5" transform="translate(0.128473,2.70006E-13)">
					<title>Sheet.13983</title>
					<path d="M28.16 78.15 C15.53 78.15 4.69 73.44 0 66.71 C1.96 89.81 28.16 102.95 28.16 102.95 C28.16 102.95 54.36
								 89.81 56.32 66.71 C51.63 73.44 40.79 78.15 28.16 78.15 Z" class="st2"/>
				</g>
				<g id="shape13984-7" transform="translate(27.2267,-9.56693)">
					<title>Sheet.13984</title>
					<ellipse cx="4.59672" cy="98.3424" rx="4.59672" ry="4.6063" class="st3"/>
				</g>
				<g id="shape13985-9" transform="translate(2.63899,-12.4996)">
					<title>Sheet.13985</title>
					<path d="M1.66 63.6 C1.66 63.6 0 69.55 6.88 75.51 L9.06 72.71 C9.02 72.69 5.31 69.69 5.04 65.32 C4.81 61.75 6.59
								 59.83 6.59 59.83 C4.62 60.73 2.98 61.96 1.66 63.6 ZM52.52 68.7 C53.57 73.3 53.18 77.83 51.33 82.01
								 C48.01 89.51 40.15 95.59 28.61 99.6 L29.76 102.95 C39.71 99.5 47.27 94.51 51.79 88.38 C53.19 84.74
								 54.05 80.77 54.05 76.47 C54.05 73.91 53.47 71.2 52.52 68.7 Z" class="st3"/>
				</g>
				<g id="shape13986-11" transform="translate(3.01144,-15.5679)">
					<title>Sheet.13986</title>
					<path d="M6.63 76.2 C0 82.84 8.21 94.5 14.88 101.18 L16.13 102.43 A1.76797 1.77165 -180 0 0 18.63 102.43 L21.13
								 99.92 A1.76797 1.77165 -180 1 0 18.63 97.42 L17.29 98.76 C8.13 89.57 5.18 82.33 8.96 78.54 C12.74
								 74.75 19.96 77.71 29.13 86.9 L27.79 88.23 A1.76797 1.77165 -180 1 0 30.29 90.74 L32.79 88.23 A1.76797
								 1.77165 -180 0 0 32.79 85.73 L31.54 84.47 C24.88 77.79 13.25 69.57 6.63 76.2 Z" class="st3"/>
				</g>
			</g>
		</g>
	</g>
</svg>
